svg/cash_fast.svg

<svg xmlns="http://www.w3.org/2000/svg" viewBox="0 0 24 24"><path d="M17.12 9.88a2.997 2.997 0 1 0-4.24 4.24 2.997 2.997 0 1 0 4.24-4.24M7 6v12h16V6zm14 8c-.53 0-1.04.21-1.41.59-.38.37-.59.88-.59 1.41h-8c0-.53-.21-1.04-.59-1.41-.37-.38-.88-.59-1.41-.59v-4c.53 0 1.04-.21 1.41-.59.38-.37.59-.88.59-1.41h8c0 .53.21 1.04.59 1.41.37.38.88.59 1.41.59zM5 8H3c-.55 0-1-.45-1-1s.45-1 1-1h2zm0 5H2c-.55 0-1-.45-1-1s.45-1 1-1h3zm0 5H1c-.552 0-1-.45-1-1s.448-1 1-1h4z"/></svg>

<svg xmlns="http://www.w3.org/2000/svg" id="mdi-cash-fast" viewBox="0 0 24 24"><path d="M17.12 9.88C16.56 9.32 15.8 9 15 9S13.44 9.32 12.88 9.88C12.32 10.44 12 11.2 12 12S12.32 13.56 12.88 14.12 14.2 15 15 15 16.56 14.68 17.12 14.12 18 12.8 18 12 17.68 10.44 17.12 9.88M7 6V18H23V6H7M21 14C20.47 14 19.96 14.21 19.59 14.59C19.21 14.96 19 15.47 19 16H11C11 15.47 10.79 14.96 10.41 14.59C10.04 14.21 9.53 14 9 14V10C9.53 10 10.04 9.79 10.41 9.41C10.79 9.04 11 8.53 11 8H19C19 8.53 19.21 9.04 19.59 9.41C19.96 9.79 20.47 10 21 10V14M5 8H3C2.45 8 2 7.55 2 7C2 6.45 2.45 6 3 6H5V8M5 13H2C1.45 13 1 12.55 1 12C1 11.45 1.45 11 2 11H5V13M5 18H1C.448 18 0 17.55 0 17C0 16.45 .448 16 1 16H5V18Z" /></svg>
